X: 2
T: The Rainy Day
R: reel
M: 4/4
L: 1/8
K: Ador
G|:EAAG A3 B|c2 ed cBAc|B~G3 D~G3|B/c/d gd edB/A/G|EAAG A3 B|c2 AB cdef|~g2 af gedB|1 GBdB BAAG:|2 GBdB BA (3Bcd||eaag eaag|edef ~g3e|d~g3 b~g3|bgaf gf e2 |a3 g eaag|edef gbaf|gedB GA (3Bcd|1 gedB BA (3Bcd:|2 gedB BAAG||


Tune 1807	Setting 15249

